X: 13
T: 13. All the Go
M: C
L: 1/8
Q: 1/4=140
K: Bb
d | B2 FB DBFB | B2 (d/c/B) Accd | B2 FB DBFB | (A/B/c) c>e dB B :|!
|:d | BBdB fBdB | BBdB Accd | BBdB fBdB | A/B/c ce dBBd |!
BBdB fBdB | BBdB Accd | dbca BgAf | fgbf dB B :|!

